Newaita-dark/apps/48/simplenote.svg

<svg height="48pt" viewBox="0 0 48 48" width="48pt" xmlns="http://www.w3.org/2000/svg" xmlns:xlink="http://www.w3.org/1999/xlink"><linearGradient id="a"><stop offset="0" stop-opacity=".313725"/><stop offset=".222222" stop-opacity=".27451"/><stop offset="1" stop-opacity="0"/></linearGradient><radialGradient id="b" cx="450.908936" cy="189.579361" gradientTransform="matrix(.00000036 -.102549 -.288309 -.00000013 78.984696 88.973262)" gradientUnits="userSpaceOnUse" r="21.166656" xlink:href="#a"/><radialGradient id="c" cx="450.908936" cy="189.579361" gradientTransform="matrix(-.00000036 .102549 .288309 .00000013 -31.685907 -4.375346)" gradientUnits="userSpaceOnUse" r="21.166656" xlink:href="#a"/><radialGradient id="d" cx="450.908936" cy="189.579361" gradientTransform="matrix(-.00000036 -.102549 .288309 -.00000013 -31.685907 88.973262)" gradientUnits="userSpaceOnUse" r="21.166656" xlink:href="#a"/><radialGradient id="e" cx="450.908936" cy="189.579361" gradientTransform="matrix(.00000036 .102549 -.288309 .00000013 78.984692 -4.375346)" gradientUnits="userSpaceOnUse" r="21.166656" xlink:href="#a"/><linearGradient id="f" gradientTransform="matrix(.0273881 0 0 .082039 16.656575 23.142854)" gradientUnits="userSpaceOnUse" x1="255.323059" x2="255.323044" y1="233.5" y2="254.666656"><stop offset="0" stop-opacity=".27451"/><stop offset="1" stop-opacity="0"/></linearGradient><linearGradient id="g" gradientUnits="userSpaceOnUse" x1="23.814786" x2="23.814786" y1="42.0509015" y2="4.34415649995"><stop offset="0" stop-color="#bdbdbd"/><stop offset="1" stop-color="#e0e0e0"/></linearGradient><linearGradient id="h" gradientUnits="userSpaceOnUse" x1="23.8147668" x2="23.8147668" y1="38.0817548103" y2="8.31329620523"><stop offset="0" stop-color="#2979ff"/><stop offset="1" stop-color="#448aff"/></linearGradient><path d="m25.003906 42.300781h5.425782v-1.738281h-5.425782zm0 0" fill="url(#b)"/><path d="m22.292969 42.300781h-5.425781v1.734375h5.425781zm0 0" fill="url(#c)"/><path d="m22.292969 42.300781h-5.425781v-1.738281h5.425781zm0 0" fill="url(#d)"/><path d="m25.003906 42.300781h5.425782v1.734375h-5.425782zm0 0" fill="url(#e)"/><path d="m22.292969 41.863281h2.710937v2.171875h-2.710937zm0 0" fill="url(#f)"/><path d="m23.816406 4.34375c10.410156 0 18.851563 8.441406 18.851563 18.855469 0 10.410156-8.441407 18.851562-18.851563 18.851562-10.414062 0-18.855468-8.441406-18.855468-18.851562 0-10.414063 8.441406-18.855469 18.855468-18.855469zm0 0" fill="url(#g)"/><path d="m25.054688 8.8125c-.925782-.003906-1.734376.101562-2.425782.289062-1.929687.519532-2.996094 1.570313-3.523437 2.886719-1.050781 2.625.226562 6.871094 5.546875 9.53125 6.492187 3.246094 9.199218 9.285157 7.4375 14.066407 3.988281-2.664063 6.609375-7.207032 6.609375-12.386719 0-5.921875-3.421875-11.011719-8.402344-13.414063-2.03125-.683594-3.78125-.96875-5.242187-.972656zm-9.511719 1.996094c-3.992188 2.664062-6.613281 7.210937-6.613281 12.390625 0 5.917969 3.421874 11.007812 8.402343 13.410156 3.316407 1.117187 5.882813 1.164063 7.667969.683594 1.929688-.519531 3-1.570313 3.523438-2.882813 1.050781-2.628906-.226563-6.875-5.546876-9.535156-6.488281-3.246094-9.199218-9.285156-7.433593-14.066406zm0 0" fill="url(#h)"/><path d="m25.054688 8.8125c-.925782-.003906-1.734376.101562-2.425782.289062-1.929687.519532-2.996094 1.570313-3.523437 2.886719-.246094.617188-.363281 1.324219-.332031 2.078125.027343-.570312.140624-1.105468.332031-1.585937.527343-1.3125 1.59375-2.367188 3.523437-2.886719.691406-.183594 1.5-.292969 2.425782-.289062 1.460937.007812 3.210937.289062 5.242187.972656 4.910156 2.367187 8.308594 7.351562 8.398437 13.167968.003907-.082031.003907-.164062.003907-.246093 0-5.921875-3.421875-11.011719-8.402344-13.414063-2.03125-.683594-3.78125-.96875-5.242187-.972656zm-9.511719 1.996094c-3.992188 2.664062-6.613281 7.210937-6.613281 12.390625 0 .078125 0 .160156.003906.242187.082031-4.984375 2.589844-9.359375 6.402344-12 .058593-.210937.128906-.421875.207031-.632812zm-.515625 3.488281c-.011719.246094-.015625.492187-.007813.742187 0-.082031.003907-.164062.007813-.246093.214844 3.949219 2.96875 8.085937 7.949218 10.574219 4.066407 2.035156 5.773438 4.996093 5.878907 7.453124.113281-2.542968-1.535157-5.773437-5.878907-7.945312-4.980468-2.492188-7.734374-6.625-7.949218-10.578125zm17.574218 18.789063c-.046874.855468-.21875 1.695312-.511718 2.5.066406-.046876.136718-.09375.203125-.140626.171875-.605468.273437-1.230468.308593-1.863281.003907.082031.007813.167969.007813.25.007813-.246093.003906-.496093-.007813-.746093zm0 0" fill="#fff" fill-opacity=".392157"/><path d="m15.542969 10.808594c-.074219.046875-.144531.097656-.214844.144531-.230469.839844-.335937 1.710937-.308594 2.589844.027344-.9375.199219-1.855469.523438-2.734375zm3.230469 2.757812c-.117188 2.542969 1.53125 5.78125 5.878906 7.953125 5.082031 2.542969 7.84375 6.796875 7.957031 10.816407.121094-4.167969-2.65625-8.679688-7.957031-11.328126-4.058594-2.03125-5.765625-4.988281-5.878906-7.441406zm19.921874 9.375c-.082031 4.980469-2.589843 9.351563-6.394531 11.988282-.0625.21875-.132812.441406-.210937.65625 3.988281-2.664063 6.609375-7.207032 6.609375-12.386719 0-.085938 0-.171875-.003907-.257813zm-29.761718 0c-.003906.085938-.003906.171875-.003906.257813 0 5.917969 3.421874 11.007812 8.402343 13.410156 3.316407 1.117187 5.882813 1.164063 7.667969.683594 1.929688-.519531 3-1.570313 3.523438-2.882813.25-.625.367187-1.335937.332031-2.097656-.027344.570312-.140625 1.101562-.332031 1.582031-.523438 1.3125-1.59375 2.367188-3.523438 2.886719-1.785156.480469-4.351562.433594-7.667969-.683594-4.90625-2.367187-8.300781-7.347656-8.398437-13.15625zm0 0" fill-opacity=".235294"/><path d="m25.054688 8.671875c-.933594-.003906-1.757813.101563-2.464844.292969-1.960938.527344-3.074219 1.617187-3.613282 2.96875-1.085937 2.710937.25 7.03125 5.613282 9.710937 6.441406 3.222657 9.101562 9.191407 7.367187 13.894531-.023437.054688-.003906.121094.042969.15625.050781.039063.117188.042969.167969.007813 4.027343-2.6875 6.671875-7.277344 6.671875-12.503906 0-5.976563-3.453125-11.117188-8.484375-13.542969-.003907 0-.011719-.003906-.015625-.003906-2.042969-.6875-3.804688-.976563-5.285156-.980469zm0 .28125c1.441406.003906 3.171874.285156 5.1875.960937 4.929687 2.382813 8.316406 7.421876 8.316406 13.285157 0 4.980469-2.445313 9.363281-6.203125 12.03125 1.5-4.792969-1.28125-10.65625-7.640625-13.835938-5.273438-2.636719-6.496094-6.8125-5.476563-9.355469.507813-1.277343 1.53125-2.292968 3.425781-2.800781.679688-.183593 1.476563-.289062 2.390626-.285156zm-9.511719 1.714844c-.027344 0-.054688.007812-.078125.023437-4.03125 2.691406-6.675782 7.277344-6.675782 12.507813 0 5.972656 3.453126 11.113281 8.484376 13.539062.003906 0 .011718.003907.015624.003907 3.335938 1.125 5.925782 1.179687 7.75.6875 1.960938-.527344 3.074219-1.617188 3.613282-2.96875 1.085937-2.710938-.246094-7.027344-5.613282-9.710938-6.441406-3.222656-9.097656-9.191406-7.367187-13.890625.015625-.042969.011719-.09375-.015625-.128906-.023438-.039063-.066406-.0625-.113281-.0625zm-.269531.496093c-1.5 4.792969 1.28125 10.65625 7.640624 13.835938 5.273438 2.636719 6.496094 6.8125 5.480469 9.355469-.511719 1.277343-1.535156 2.292969-3.429687 2.804687-1.75.46875-4.285156.425782-7.578125-.679687-4.929688-2.378907-8.316407-7.421875-8.316407-13.28125 0-4.980469 2.445313-9.367188 6.203126-12.035157zm0 0" fill="#212121"/><path d="m23.816406 4.34375c-10.445312 0-18.855468 8.410156-18.855468 18.855469 0 .125.003906.253906.003906.378906.203125-10.265625 8.53125-18.472656 18.851562-18.472656 10.316406 0 18.644532 8.207031 18.847656 18.472656.003907-.125.003907-.253906.003907-.378906 0-10.445313-8.410157-18.855469-18.851563-18.855469zm0 0" fill="#fff" fill-opacity=".588235"/><path d="m23.816406 42.050781c-10.445312 0-18.855468-8.410156-18.855468-18.851562 0-.128907.003906-.253907.003906-.382813.203125 10.269532 8.53125 18.472656 18.851562 18.472656 10.316406 0 18.644532-8.203124 18.847656-18.472656.003907.128906.003907.253906.003907.382813 0 10.441406-8.410157 18.851562-18.851563 18.851562zm0 0" fill-opacity=".235294"/><path d="m23.816406 4.203125c-10.523437 0-18.996094 8.472656-18.996094 18.996094 0 10.519531 8.472657 18.992187 18.996094 18.992187 10.519532 0 18.992188-8.472656 18.992188-18.992187 0-10.523438-8.472656-18.996094-18.992188-18.996094zm0 .28125c10.367188 0 18.710938 8.34375 18.710938 18.714844 0 10.367187-8.34375 18.710937-18.710938 18.710937-10.371094 0-18.714844-8.34375-18.714844-18.710937 0-10.371094 8.34375-18.714844 18.714844-18.714844zm0 0" fill="#212121"/><path d="m15.542969 11.785156c-.117188.078125-.230469.15625-.34375.234375-.15625.742188-.210938 1.507813-.171875 2.277344.046875-.859375.214844-1.703125.515625-2.511719zm3.246093 2.535156c-.226562 2.574219 1.386719 5.9375 5.863282 8.175782 4.988281 2.492187 7.742187 6.636718 7.949218 10.59375.226563-4.234375-2.554687-8.859375-7.949218-11.554688-3.9375-1.96875-5.660156-4.808594-5.863282-7.214844zm-9.851562 9.371094c-.003906.160156-.007812.320313-.007812.480469 0 5.921875 3.421874 11.011719 8.402343 13.414063 3.316407 1.117187 5.882813 1.164062 7.667969.683593 1.929688-.519531 3-1.570312 3.523438-2.886719.273437-.679687.386718-1.472656.316406-2.316406-.042969.484375-.148438.941406-.316406 1.355469-.523438 1.316406-1.59375 2.367187-3.523438 2.886719-1.785156.480468-4.351562.433594-7.667969-.683594-4.84375-2.335938-8.214843-7.21875-8.394531-12.933594zm29.753906.003906c-.152344 4.828126-2.585937 9.0625-6.261718 11.667969-.082032.40625-.195313.808594-.339844 1.199219 3.988281-2.664062 6.609375-7.210938 6.609375-12.390625 0-.160156-.003907-.316406-.007813-.476563zm0 0" fill-opacity=".235294"/></svg>

<?xml version="1.0" encoding="UTF-8"?>
<svg xmlns="http://www.w3.org/2000/svg" xmlns:xlink="http://www.w3.org/1999/xlink" width="48pt" height="48pt" viewBox="0 0 48 48" version="1.1">
<defs>
<radialGradient id="radial0" gradientUnits="userSpaceOnUse" cx="450.908936" cy="189.579361" fx="450.908936" fy="189.579361" r="21.166656" gradientTransform="matrix(0.000000357049,-0.102549,-0.288309,-0.000000133269,78.984696,88.973262)">
<stop offset="0" style="stop-color:rgb(0%,0%,0%);stop-opacity:0.313725;"/>
<stop offset="0.222222" style="stop-color:rgb(0%,0%,0%);stop-opacity:0.27451;"/>
<stop offset="1" style="stop-color:rgb(0%,0%,0%);stop-opacity:0;"/>
</radialGradient>
<radialGradient id="radial1" gradientUnits="userSpaceOnUse" cx="450.908936" cy="189.579361" fx="450.908936" fy="189.579361" r="21.166656" gradientTransform="matrix(-0.000000357049,0.102549,0.288309,0.000000133269,-31.685907,-4.375346)">
<stop offset="0" style="stop-color:rgb(0%,0%,0%);stop-opacity:0.313725;"/>
<stop offset="0.222222" style="stop-color:rgb(0%,0%,0%);stop-opacity:0.27451;"/>
<stop offset="1" style="stop-color:rgb(0%,0%,0%);stop-opacity:0;"/>
</radialGradient>
<radialGradient id="radial2" gradientUnits="userSpaceOnUse" cx="450.908936" cy="189.579361" fx="450.908936" fy="189.579361" r="21.166656" gradientTransform="matrix(-0.000000357049,-0.102549,0.288309,-0.000000133269,-31.685907,88.973262)">
<stop offset="0" style="stop-color:rgb(0%,0%,0%);stop-opacity:0.313725;"/>
<stop offset="0.222222" style="stop-color:rgb(0%,0%,0%);stop-opacity:0.27451;"/>
<stop offset="1" style="stop-color:rgb(0%,0%,0%);stop-opacity:0;"/>
</radialGradient>
<radialGradient id="radial3" gradientUnits="userSpaceOnUse" cx="450.908936" cy="189.579361" fx="450.908936" fy="189.579361" r="21.166656" gradientTransform="matrix(0.000000357049,0.102549,-0.288309,0.000000133269,78.984692,-4.375346)">
<stop offset="0" style="stop-color:rgb(0%,0%,0%);stop-opacity:0.313725;"/>
<stop offset="0.222222" style="stop-color:rgb(0%,0%,0%);stop-opacity:0.27451;"/>
<stop offset="1" style="stop-color:rgb(0%,0%,0%);stop-opacity:0;"/>
</radialGradient>
<linearGradient id="linear0" gradientUnits="userSpaceOnUse" x1="255.323059" y1="233.5" x2="255.323044" y2="254.666656" gradientTransform="matrix(0.0273881,0,0,0.082039,16.656575,23.142854)">
<stop offset="0" style="stop-color:rgb(0%,0%,0%);stop-opacity:0.27451;"/>
<stop offset="1" style="stop-color:rgb(0%,0%,0%);stop-opacity:0;"/>
</linearGradient>
<linearGradient id="linear1" gradientUnits="userSpaceOnUse" x1="254" y1="233.5" x2="254" y2="-168.666672" gradientTransform="matrix(0.093759,0,0,0.093759,0,20.158175)">
<stop offset="0" style="stop-color:rgb(74.117647%,74.117647%,74.117647%);stop-opacity:1;"/>
<stop offset="1" style="stop-color:rgb(87.843137%,87.843137%,87.843137%);stop-opacity:1;"/>
</linearGradient>
<linearGradient id="linear2" gradientUnits="userSpaceOnUse" x1="254" y1="233.500015" x2="254" y2="-168.666672" gradientTransform="matrix(0.0740202,0,0,0.0740202,5.013636,20.798037)">
<stop offset="0" style="stop-color:rgb(16.078431%,47.45098%,100%);stop-opacity:1;"/>
<stop offset="1" style="stop-color:rgb(26.666667%,54.117647%,100%);stop-opacity:1;"/>
</linearGradient>
</defs>
<g id="surface1">
<path style=" stroke:none;fill-rule:nonzero;fill:url(#radial0);" d="M 25.003906 42.300781 L 30.429688 42.300781 L 30.429688 40.5625 L 25.003906 40.5625 Z M 25.003906 42.300781 "/>
<path style=" stroke:none;fill-rule:nonzero;fill:url(#radial1);" d="M 22.292969 42.300781 L 16.867188 42.300781 L 16.867188 44.035156 L 22.292969 44.035156 Z M 22.292969 42.300781 "/>
<path style=" stroke:none;fill-rule:nonzero;fill:url(#radial2);" d="M 22.292969 42.300781 L 16.867188 42.300781 L 16.867188 40.5625 L 22.292969 40.5625 Z M 22.292969 42.300781 "/>
<path style=" stroke:none;fill-rule:nonzero;fill:url(#radial3);" d="M 25.003906 42.300781 L 30.429688 42.300781 L 30.429688 44.035156 L 25.003906 44.035156 Z M 25.003906 42.300781 "/>
<path style=" stroke:none;fill-rule:nonzero;fill:url(#linear0);" d="M 22.292969 41.863281 L 25.003906 41.863281 L 25.003906 44.035156 L 22.292969 44.035156 Z M 22.292969 41.863281 "/>
<path style=" stroke:none;fill-rule:nonzero;fill:url(#linear1);" d="M 23.816406 4.34375 C 34.226562 4.34375 42.667969 12.785156 42.667969 23.199219 C 42.667969 33.609375 34.226562 42.050781 23.816406 42.050781 C 13.402344 42.050781 4.960938 33.609375 4.960938 23.199219 C 4.960938 12.785156 13.402344 4.34375 23.816406 4.34375 Z M 23.816406 4.34375 "/>
<path style=" stroke:none;fill-rule:nonzero;fill:url(#linear2);" d="M 25.054688 8.8125 C 24.128906 8.808594 23.320312 8.914062 22.628906 9.101562 C 20.699219 9.621094 19.632812 10.671875 19.105469 11.988281 C 18.054688 14.613281 19.332031 18.859375 24.652344 21.519531 C 31.144531 24.765625 33.851562 30.804688 32.089844 35.585938 C 36.078125 32.921875 38.699219 28.378906 38.699219 23.199219 C 38.699219 17.277344 35.277344 12.1875 30.296875 9.785156 C 28.265625 9.101562 26.515625 8.816406 25.054688 8.8125 Z M 15.542969 10.808594 C 11.550781 13.472656 8.929688 18.019531 8.929688 23.199219 C 8.929688 29.117188 12.351562 34.207031 17.332031 36.609375 C 20.648438 37.726562 23.214844 37.773438 25 37.292969 C 26.929688 36.773438 28 35.722656 28.523438 34.410156 C 29.574219 31.78125 28.296875 27.535156 22.976562 24.875 C 16.488281 21.628906 13.777344 15.589844 15.542969 10.808594 Z M 15.542969 10.808594 "/>
<path style=" stroke:none;fill-rule:nonzero;fill:rgb(100%,100%,100%);fill-opacity:0.392157;" d="M 25.054688 8.8125 C 24.128906 8.808594 23.320312 8.914062 22.628906 9.101562 C 20.699219 9.621094 19.632812 10.671875 19.105469 11.988281 C 18.859375 12.605469 18.742188 13.3125 18.773438 14.066406 C 18.800781 13.496094 18.914062 12.960938 19.105469 12.480469 C 19.632812 11.167969 20.699219 10.113281 22.628906 9.59375 C 23.320312 9.410156 24.128906 9.300781 25.054688 9.304688 C 26.515625 9.3125 28.265625 9.59375 30.296875 10.277344 C 35.207031 12.644531 38.605469 17.628906 38.695312 23.445312 C 38.699219 23.363281 38.699219 23.28125 38.699219 23.199219 C 38.699219 17.277344 35.277344 12.1875 30.296875 9.785156 C 28.265625 9.101562 26.515625 8.816406 25.054688 8.8125 Z M 15.542969 10.808594 C 11.550781 13.472656 8.929688 18.019531 8.929688 23.199219 C 8.929688 23.277344 8.929688 23.359375 8.933594 23.441406 C 9.015625 18.457031 11.523438 14.082031 15.335938 11.441406 C 15.394531 11.230469 15.464844 11.019531 15.542969 10.808594 Z M 15.027344 14.296875 C 15.015625 14.542969 15.011719 14.789062 15.019531 15.039062 C 15.019531 14.957031 15.023438 14.875 15.027344 14.792969 C 15.242188 18.742188 17.996094 22.878906 22.976562 25.367188 C 27.042969 27.402344 28.75 30.363281 28.855469 32.820312 C 28.96875 30.277344 27.320312 27.046875 22.976562 24.875 C 17.996094 22.382812 15.242188 18.25 15.027344 14.296875 Z M 32.601562 33.085938 C 32.554688 33.941406 32.382812 34.78125 32.089844 35.585938 C 32.15625 35.539062 32.226562 35.492188 32.292969 35.445312 C 32.464844 34.839844 32.566406 34.214844 32.601562 33.582031 C 32.605469 33.664062 32.609375 33.75 32.609375 33.832031 C 32.617188 33.585938 32.613281 33.335938 32.601562 33.085938 Z M 32.601562 33.085938 "/>
<path style=" stroke:none;fill-rule:nonzero;fill:rgb(0%,0%,0%);fill-opacity:0.235294;" d="M 15.542969 10.808594 C 15.46875 10.855469 15.398438 10.90625 15.328125 10.953125 C 15.097656 11.792969 14.992188 12.664062 15.019531 13.542969 C 15.046875 12.605469 15.21875 11.6875 15.542969 10.808594 Z M 18.773438 13.566406 C 18.65625 16.109375 20.304688 19.347656 24.652344 21.519531 C 29.734375 24.0625 32.496094 28.316406 32.609375 32.335938 C 32.730469 28.167969 29.953125 23.65625 24.652344 21.007812 C 20.59375 18.976562 18.886719 16.019531 18.773438 13.566406 Z M 38.695312 22.941406 C 38.613281 27.921875 36.105469 32.292969 32.300781 34.929688 C 32.238281 35.148438 32.167969 35.371094 32.089844 35.585938 C 36.078125 32.921875 38.699219 28.378906 38.699219 23.199219 C 38.699219 23.113281 38.699219 23.027344 38.695312 22.941406 Z M 8.933594 22.941406 C 8.929688 23.027344 8.929688 23.113281 8.929688 23.199219 C 8.929688 29.117188 12.351562 34.207031 17.332031 36.609375 C 20.648438 37.726562 23.214844 37.773438 25 37.292969 C 26.929688 36.773438 28 35.722656 28.523438 34.410156 C 28.773438 33.785156 28.890625 33.074219 28.855469 32.3125 C 28.828125 32.882812 28.714844 33.414062 28.523438 33.894531 C 28 35.207031 26.929688 36.261719 25 36.78125 C 23.214844 37.261719 20.648438 37.214844 17.332031 36.097656 C 12.425781 33.730469 9.03125 28.75 8.933594 22.941406 Z M 8.933594 22.941406 "/>
<path style=" stroke:none;fill-rule:nonzero;fill:rgb(12.941177%,12.941177%,12.941177%);fill-opacity:1;" d="M 25.054688 8.671875 C 24.121094 8.667969 23.296875 8.773438 22.589844 8.964844 C 20.628906 9.492188 19.515625 10.582031 18.976562 11.933594 C 17.890625 14.644531 19.226562 18.964844 24.589844 21.644531 C 31.03125 24.867188 33.691406 30.835938 31.957031 35.539062 C 31.933594 35.59375 31.953125 35.660156 32 35.695312 C 32.050781 35.734375 32.117188 35.738281 32.167969 35.703125 C 36.195312 33.015625 38.839844 28.425781 38.839844 23.199219 C 38.839844 17.222656 35.386719 12.082031 30.355469 9.65625 C 30.351562 9.65625 30.34375 9.652344 30.339844 9.652344 C 28.296875 8.964844 26.535156 8.675781 25.054688 8.671875 Z M 25.054688 8.953125 C 26.496094 8.957031 28.226562 9.238281 30.242188 9.914062 C 35.171875 12.296875 38.558594 17.335938 38.558594 23.199219 C 38.558594 28.179688 36.113281 32.5625 32.355469 35.230469 C 33.855469 30.4375 31.074219 24.574219 24.714844 21.394531 C 19.441406 18.757812 18.21875 14.582031 19.238281 12.039062 C 19.746094 10.761719 20.769531 9.746094 22.664062 9.238281 C 23.34375 9.054688 24.140625 8.949219 25.054688 8.953125 Z M 15.542969 10.667969 C 15.515625 10.667969 15.488281 10.675781 15.464844 10.691406 C 11.433594 13.382812 8.789062 17.96875 8.789062 23.199219 C 8.789062 29.171875 12.242188 34.3125 17.273438 36.738281 C 17.277344 36.738281 17.285156 36.742188 17.289062 36.742188 C 20.625 37.867188 23.214844 37.921875 25.039062 37.429688 C 27 36.902344 28.113281 35.8125 28.652344 34.460938 C 29.738281 31.75 28.40625 27.433594 23.039062 24.75 C 16.597656 21.527344 13.941406 15.558594 15.671875 10.859375 C 15.6875 10.816406 15.683594 10.765625 15.65625 10.730469 C 15.632812 10.691406 15.589844 10.667969 15.542969 10.667969 Z M 15.273438 11.164062 C 13.773438 15.957031 16.554688 21.820312 22.914062 25 C 28.1875 27.636719 29.410156 31.8125 28.394531 34.355469 C 27.882812 35.632812 26.859375 36.648438 24.964844 37.160156 C 23.214844 37.628906 20.679688 37.585938 17.386719 36.480469 C 12.457031 34.101562 9.070312 29.058594 9.070312 23.199219 C 9.070312 18.21875 11.515625 13.832031 15.273438 11.164062 Z M 15.273438 11.164062 "/>
<path style=" stroke:none;fill-rule:nonzero;fill:rgb(100%,100%,100%);fill-opacity:0.588235;" d="M 23.816406 4.34375 C 13.371094 4.34375 4.960938 12.753906 4.960938 23.199219 C 4.960938 23.324219 4.964844 23.453125 4.964844 23.578125 C 5.167969 13.3125 13.496094 5.105469 23.816406 5.105469 C 34.132812 5.105469 42.460938 13.3125 42.664062 23.578125 C 42.667969 23.453125 42.667969 23.324219 42.667969 23.199219 C 42.667969 12.753906 34.257812 4.34375 23.816406 4.34375 Z M 23.816406 4.34375 "/>
<path style=" stroke:none;fill-rule:nonzero;fill:rgb(0%,0%,0%);fill-opacity:0.235294;" d="M 23.816406 42.050781 C 13.371094 42.050781 4.960938 33.640625 4.960938 23.199219 C 4.960938 23.070312 4.964844 22.945312 4.964844 22.816406 C 5.167969 33.085938 13.496094 41.289062 23.816406 41.289062 C 34.132812 41.289062 42.460938 33.085938 42.664062 22.816406 C 42.667969 22.945312 42.667969 23.070312 42.667969 23.199219 C 42.667969 33.640625 34.257812 42.050781 23.816406 42.050781 Z M 23.816406 42.050781 "/>
<path style=" stroke:none;fill-rule:nonzero;fill:rgb(12.941177%,12.941177%,12.941177%);fill-opacity:1;" d="M 23.816406 4.203125 C 13.292969 4.203125 4.820312 12.675781 4.820312 23.199219 C 4.820312 33.71875 13.292969 42.191406 23.816406 42.191406 C 34.335938 42.191406 42.808594 33.71875 42.808594 23.199219 C 42.808594 12.675781 34.335938 4.203125 23.816406 4.203125 Z M 23.816406 4.484375 C 34.183594 4.484375 42.527344 12.828125 42.527344 23.199219 C 42.527344 33.566406 34.183594 41.910156 23.816406 41.910156 C 13.445312 41.910156 5.101562 33.566406 5.101562 23.199219 C 5.101562 12.828125 13.445312 4.484375 23.816406 4.484375 Z M 23.816406 4.484375 "/>
<path style=" stroke:none;fill-rule:nonzero;fill:rgb(0%,0%,0%);fill-opacity:0.235294;" d="M 15.542969 11.785156 C 15.425781 11.863281 15.3125 11.941406 15.199219 12.019531 C 15.042969 12.761719 14.988281 13.527344 15.027344 14.296875 C 15.074219 13.4375 15.242188 12.59375 15.542969 11.785156 Z M 18.789062 14.320312 C 18.5625 16.894531 20.175781 20.257812 24.652344 22.496094 C 29.640625 24.988281 32.394531 29.132812 32.601562 33.089844 C 32.828125 28.855469 30.046875 24.230469 24.652344 21.535156 C 20.714844 19.566406 18.992188 16.726562 18.789062 14.320312 Z M 8.9375 23.691406 C 8.933594 23.851562 8.929688 24.011719 8.929688 24.171875 C 8.929688 30.09375 12.351562 35.183594 17.332031 37.585938 C 20.648438 38.703125 23.214844 38.75 25 38.269531 C 26.929688 37.75 28 36.699219 28.523438 35.382812 C 28.796875 34.703125 28.910156 33.910156 28.839844 33.066406 C 28.796875 33.550781 28.691406 34.007812 28.523438 34.421875 C 28 35.738281 26.929688 36.789062 25 37.308594 C 23.214844 37.789062 20.648438 37.742188 17.332031 36.625 C 12.488281 34.289062 9.117188 29.40625 8.9375 23.691406 Z M 38.691406 23.695312 C 38.539062 28.523438 36.105469 32.757812 32.429688 35.363281 C 32.347656 35.769531 32.234375 36.171875 32.089844 36.5625 C 36.078125 33.898438 38.699219 29.351562 38.699219 24.171875 C 38.699219 24.011719 38.695312 23.855469 38.691406 23.695312 Z M 38.691406 23.695312 "/>
</g>
</svg>
